X: 2176
T: Auld Toon O'Ayr
R: strathspey
M: 4/4
K: Dmajor
A,|D<DF<A d2- d>c|B/^A/B/c/ d>B A<FF<d|D<DF<A d3 f|(3efg (3gfe d<BB<d|
D<DF<A d2- d>c|B/^A/B/c/ d>B A<FF<A|B/^A/B/c/ d>B A<FF<d|A<FF>D [A,3E3]||
z|D>dF>d A<FF<A|B/^A/B/c/ d>B A<FF<d|D>dF>d A<FF<A|d>B A<F [A,3E3] F|
D>dF>d A<FF<A|B>AB>c d2- d>f|(3efg (3gfe d<BB<d|A<FF>D [A,3E3]||

